X:1
T:Title
%%score { ( 1 3 4 ) | ( 2 5 ) }
L:1/8
M:6/8
K:G
V:1 treble nm="Grand Piano"
V:3 treble 
V:4 treble 
V:2 bass 
V:5 bass 
V:1
 z3 z2[Q:1/4=100] D | [DB]3- [DB]Gc | [DB]3 [B,G]2 d | [Ec]3- [Ec]GA |[M:5/8] [DB]-[DB]- [DB]3 | %5
[M:1/8] B |[M:3/4] [FA]4 ce | [Bd]3 [GB]2 G | [^CE]4 FG |[M:5/8] A-A- A3 |[M:1/8] D | %11
[M:3/4] [DB]4 Gc | [DB]3 [B,G]2 d | [Ec]4 GA |[M:5/8] [DB]-[DB]- [DB]3 |[M:1/8] B | %16
[M:3/4] [=Fd]4 ed | [Ec]3 E2 G | [DF]3 B2 A |[M:5/8] [B,G]-[B,G]- [B,G]3 |[M:1/8] B | %21
[M:3/4] [Fd]4 z2 | [GB]4 z2 | [Fd]4 z2 | [GB]6 | [DB]4 [Dc][Dd] |[M:7/8] [CE]3 [EA]3 [EG] | %27
[M:3/4] F3 B2 A[Q:1/4=98][Q:1/4=97][Q:1/4=95][Q:1/4=94][Q:1/4=92][Q:1/4=91][Q:1/4=89][Q:1/4=88][Q:1/4=86][Q:1/4=84][Q:1/4=83][Q:1/4=81][Q:1/4=80][Q:1/4=78][Q:1/4=77] | %28
[M:5/8] [B,G]-[B,G]- [B,G]3 |] %29
V:2
 z3 z2 B, | G,,B,,D, G,B,E | G,,B,,D, G,2 =F | C,E,G, CE^D |[M:5/8] G,,B,,D, G,2 |[M:1/8] G | %6
[M:3/4] D,F, A,[K:treble]D Ac | G,,B,, D, G,2 B, | A,,^C, E,G, D^C |[M:5/8] D,F,A, C2 |[M:1/8] B, | %11
[M:3/4] G,,B,, D,G, B,E | G,,B,, D, G,2 =F | C,E, G,C E^D |[M:5/8] G,,B,,D, G,2 |[M:1/8] G | %16
[M:3/4] G,,=F, G,B,[K:treble] G=F | C,E, G, C2 E | D,F, A, [D,G,D]2 [D,F,C] | %19
[M:5/8] [G,,G,]-[G,,G,]- [G,,G,]3 |[M:1/8] [G,D] |[M:3/4] [D,A,]D, D,D, D,D, | %22
 G,G, G,G,[K:treble] [G,CG][G,B,G] | [D,A,]D, .D,2 FD, | G,D, B,, G,,2 [G,,G,] | %25
 [G,,G,]4 [A,,F,][B,,G,] |[M:7/8] [C,G,]3 [C,C]3 [C,C] |[M:3/4] [D,A,D]3 [D,G,D]2 [D,F,C] | %28
[M:5/8] [G,,G,]-[G,,G,]- [G,,G,]3 |] %29
V:3
 x6 | x6 | x6 | x6 |[M:5/8] x5 |[M:1/8] x |[M:3/4] x6 | x6 | x6 |[M:5/8] C3 z2 |[M:1/8] x | %11
[M:3/4] x6 | x6 | x6 |[M:5/8] x5 |[M:1/8] x |[M:3/4] x6 | x6 | x6 |[M:5/8] x5 |[M:1/8] x | %21
[M:3/4] z A, A,A, [DFA][DAc] | DD DD ed | z A, .A,2 A[DAc] | DD D D2 [B,D] | x6 |[M:7/8] x7 | %27
[M:3/4] x6 |[M:5/8] x5 |] %29
V:4
 x6 | x6 | x6 | x6 |[M:5/8] x5 |[M:1/8] x |[M:3/4] x6 | x6 | x6 |[M:5/8] x5 |[M:1/8] x | %11
[M:3/4] x6 | x6 | x6 |[M:5/8] x5 |[M:1/8] x |[M:3/4] x6 | x6 | x6 |[M:5/8] x5 |[M:1/8] x | %21
[M:3/4] x6 | x6 | z2 z .A,3 | x6 | x6 |[M:7/8] x7 |[M:3/4] x6 |[M:5/8] x5 |] %29
V:5
 x6 | x6 | x6 | x6 |[M:5/8] x5 |[M:1/8] x |[M:3/4] x3[K:treble] x3 | x6 | x6 |[M:5/8] x5 | %10
[M:1/8] x |[M:3/4] x6 | x6 | x6 |[M:5/8] x5 |[M:1/8] x |[M:3/4] x4[K:treble] x2 | x6 | x6 | %19
[M:5/8] x5 |[M:1/8] x |[M:3/4] x6 | x4[K:treble] x2 | z2 z .D,3 | x6 | x6 |[M:7/8] x7 |[M:3/4] x6 | %28
[M:5/8] x5 |] %29

